apps/www/public/images/logos/publicity/fixed-width/goodtape.svg

<svg width="180" height="60" viewBox="0 0 180 60" fill="none" xmlns="http://www.w3.org/2000/svg">
<path d="M50.9 41.6929H18.7864C17.3229 41.6929 16.1345 40.5122 16.1345 39.0581V20.942C16.1345 19.4879 17.3229 18.3071 18.7864 18.3071H50.9C52.3635 18.3071 53.5518 19.4879 53.5518 20.942V39.0581C53.5518 40.5122 52.3635 41.6929 50.9 41.6929ZM43.6542 25.594C41.1729 25.594 39.1593 27.5947 39.1593 30.0602C39.1593 32.5256 41.1729 34.5263 43.6542 34.5263C46.1355 34.5263 48.1491 32.5256 48.1491 30.0602C48.1491 27.5947 46.1355 25.594 43.6542 25.594ZM26.4668 25.594C23.9855 25.594 21.9719 27.5947 21.9719 30.0602C21.9719 32.5256 23.9855 34.5263 26.4668 34.5263C28.9481 34.5263 30.9617 32.5256 30.9617 30.0602C30.9617 27.5947 28.9481 25.594 26.4668 25.594Z" fill="#7E7E7E"/>
<path fill-rule="evenodd" clip-rule="evenodd" d="M114.427 24.4461H111.159C111.135 26.3555 111.135 26.3555 111.112 28.2276C110.945 27.9936 110.897 27.9271 110.843 27.8664L110.837 27.8596L110.829 27.8509L110.821 27.8419C110.806 27.8256 110.789 27.8082 110.768 27.7869C110.032 27.1338 109.253 26.8126 108.258 26.8074C108.197 26.8084 108.139 26.8088 108.08 26.8093C107.654 26.8126 107.24 26.8168 106.824 26.9218C106.797 26.9304 106.769 26.9389 106.742 26.9473L106.741 26.9473L106.677 26.9671C106.51 27.0161 106.348 27.0689 106.186 27.1305C105.493 27.4297 104.74 27.9255 104.424 28.6398C104.413 28.6743 104.401 28.7075 104.389 28.7411H104.296C103.849 29.757 103.702 30.6823 103.73 31.785C103.779 32.8657 104.185 33.8923 104.971 34.6374L104.988 34.6541L105.007 34.6715L105.008 34.6728C105.021 34.6845 105.033 34.6962 105.046 34.7079C105.175 34.8307 105.294 34.9366 105.457 35.0118L105.49 35.0223C105.512 35.0295 105.534 35.0366 105.557 35.0436V35.1369C106.789 35.6939 108.166 36.0071 109.499 35.5585C110.163 35.2905 110.869 34.9016 111.169 34.2126C111.181 34.1776 111.193 34.1439 111.205 34.1099H111.299C111.299 34.1639 111.299 34.2074 111.3 34.251C111.306 34.4332 111.335 34.6148 111.485 35.5555L111.485 35.5567L111.486 35.5571H114.427V24.4461ZM110.73 29.9392C111.11 30.3575 111.229 30.8669 111.214 31.4238C111.185 31.8248 111.102 32.139 110.879 32.4761C110.851 32.5181 110.823 32.5606 110.794 32.6045C110.395 33.0148 109.819 33.1315 109.266 33.1455C108.62 33.1525 108.055 33.0793 107.564 32.6161C107.234 32.2865 107.147 31.8188 107.135 31.3701C107.144 30.7814 107.278 30.2403 107.704 29.815C108.525 29.1703 109.965 29.2394 110.73 29.9392Z" fill="#7E7E7E"/>
<path d="M72.9416 24.7145C72.9661 24.7148 72.9787 24.7149 72.991 24.7149L73.0148 24.715L73.0431 24.715C73.5525 24.7178 74.0557 24.7281 74.5576 24.8196C74.5968 24.8266 74.636 24.8336 74.6766 24.8411C75.7812 25.0474 76.7756 25.4284 77.5921 26.2201C77.6023 26.2291 77.6125 26.238 77.6227 26.247C77.6418 26.2638 77.661 26.2807 77.6808 26.2981C78.2634 26.8294 78.6631 27.7771 78.7592 28.5544V28.9278H75.0244L74.9773 28.7705L74.9769 28.7691L74.9765 28.7678L74.9762 28.7666L74.9668 28.7353C74.9537 28.6914 74.9405 28.6474 74.9272 28.6031L74.9016 28.5179L74.8844 28.461H74.791C74.7709 28.4265 74.7509 28.3914 74.7299 28.356C74.5249 28.0217 74.1454 27.8737 73.7817 27.7724C72.9988 27.6081 72.0273 27.6295 71.334 28.0698L71.243 28.1342C71.2277 28.1445 71.2125 28.1547 71.197 28.165C71.1811 28.1756 71.1651 28.1862 71.1486 28.1971L71.1463 28.1986C70.7089 28.5296 70.5203 29.066 70.4367 29.5903C70.327 30.4213 70.3956 31.2537 70.6361 32.0557H70.7294C70.7449 32.0954 70.7602 32.1346 70.7761 32.1752C71.0109 32.5791 71.4073 32.7882 71.8433 32.9227C72.1585 33.0051 72.4716 33.0019 72.7946 32.9987L72.8303 32.9983H73.003C73.7313 32.9946 74.3872 32.9306 74.9315 32.3923C75.1089 32.1958 75.2046 32.0254 75.3046 31.7756L72.4568 31.7289L72.454 30.7747L72.4526 30.4731V30.2383C72.4523 30.2181 72.4522 30.1979 72.4521 30.1775V30.1756C72.452 30.1552 72.4519 30.1346 72.4516 30.1136C72.4516 30.0142 72.454 29.9143 72.4568 29.8149C72.5203 29.7517 72.5973 29.7557 72.6809 29.7599C72.7025 29.761 72.7244 29.7621 72.7467 29.7621C72.799 29.7621 72.8517 29.7621 72.9059 29.7616C72.9642 29.7621 73.0226 29.7621 73.0823 29.7621H73.2672C73.4348 29.7616 73.6024 29.7616 73.77 29.7621C73.9451 29.7621 74.1202 29.7621 74.2952 29.7616C74.5893 29.7616 74.8835 29.7616 75.1776 29.7621C75.4044 29.7624 75.6313 29.7623 75.8582 29.7622C75.9717 29.7622 76.0851 29.7621 76.1986 29.7621C76.4903 29.7616 76.7821 29.7616 77.0739 29.7621C77.1493 29.7621 77.2247 29.7621 77.3001 29.7621C77.3992 29.762 77.4983 29.7619 77.5972 29.7616C77.6946 29.7616 77.7918 29.7618 77.889 29.7619L78.1808 29.7621C78.2387 29.7621 78.2971 29.7621 78.3573 29.7616C78.4362 29.7621 78.4362 29.7621 78.5165 29.7621H78.6561C78.7178 29.7657 78.7426 29.7672 78.7625 29.7778C78.7759 29.7849 78.7872 29.7961 78.8059 29.8149C78.8106 29.8891 78.812 29.9638 78.812 30.0385V30.1851C78.812 30.2388 78.8115 30.292 78.8115 30.3471V30.517C78.8115 30.594 78.8114 30.6711 78.8113 30.7481C78.8112 30.8251 78.811 30.9021 78.811 30.9792C78.8109 31.0252 78.8108 31.0713 78.8107 31.1174C78.8107 31.1617 78.8107 31.206 78.8106 31.2502L78.8106 31.4614C78.8106 31.5646 78.8105 31.6677 78.8104 31.7709C78.8103 31.8875 78.8102 32.0041 78.81 32.1207L78.8097 32.3755C78.809 32.6274 78.8088 32.8794 78.8086 33.1313C78.8085 33.2603 78.8084 33.3893 78.8082 33.5184C78.8078 34.1976 78.8068 34.8774 78.8059 35.5571H75.8648L75.8646 35.5559C75.7911 34.9657 75.7682 34.7817 75.7525 34.5971C75.7489 34.5543 75.7457 34.5114 75.7423 34.4634C75.7407 34.4408 75.7391 34.4171 75.7373 34.3918L75.7289 34.2658C75.727 34.2373 75.725 34.2087 75.7228 34.1794C75.7199 34.138 75.717 34.0966 75.7142 34.0552C75.7107 34.0053 75.7073 33.9553 75.704 33.9054L75.6958 33.7831C75.694 33.759 75.6923 33.735 75.6907 33.7109L75.6846 33.6239C75.682 33.5859 75.6793 33.5479 75.6766 33.51C75.6692 33.3998 75.6616 33.2897 75.654 33.1797C75.6464 33.0696 75.6388 32.9595 75.6313 32.8494C75.6225 32.8928 75.6136 32.9367 75.6047 32.9815L75.6023 32.9932C75.5949 33.0284 75.5875 33.0636 75.5801 33.0992C75.5762 33.1182 75.5723 33.1373 75.5683 33.1566C75.5604 33.1938 75.5526 33.2313 75.5448 33.2691L75.5437 33.2746L75.5324 33.3293C75.3424 34.136 74.9063 34.8059 74.2135 35.2681C73.0207 35.9801 71.4418 36.0043 70.1193 35.6729C68.9732 35.3591 68.1048 34.7004 67.5082 33.6897C67.489 33.657 67.4694 33.6243 67.4489 33.5907C66.6212 32.1645 66.6702 30.031 67.0694 28.4764C67.3807 27.3574 68.1001 26.3196 69.0955 25.7066H69.1888V25.6132C69.7584 25.3191 70.3009 25.0843 70.925 24.9302L70.9481 24.9246L70.9742 24.9181L71.0071 24.9099L71.0418 24.9013C71.6711 24.7528 72.2976 24.7094 72.9414 24.7145H72.9416Z" fill="#7E7E7E"/>
<path fill-rule="evenodd" clip-rule="evenodd" d="M147.618 26.8151L147.637 26.8149C147.666 26.8146 147.695 26.8142 147.725 26.8138L147.812 26.8125C148.217 26.8093 148.584 26.8569 148.974 26.9671C149.01 26.9769 149.047 26.9867 149.085 26.997C150.094 27.2817 150.866 27.9689 151.373 28.8718C151.604 29.3345 151.728 29.8219 151.821 30.3284C151.829 30.3713 151.837 30.4143 151.846 30.4586C152.03 31.699 151.835 33.0123 151.086 34.0352C151.006 34.1393 150.924 34.2415 150.841 34.3433C150.807 34.3895 150.773 34.4357 150.739 34.4833C150.577 34.6754 150.366 34.822 150.159 34.9656L150.159 34.9657L150.158 34.9664C150.135 34.9823 150.112 34.9981 150.09 35.0139C150.075 35.0237 150.061 35.0336 150.047 35.0435C150.014 35.0669 149.981 35.0902 149.947 35.114C148.98 35.7574 147.685 35.8545 146.564 35.6827C146.327 35.6346 146.113 35.5613 145.892 35.4637C145.847 35.4441 145.801 35.4245 145.754 35.404C145.179 35.1378 144.857 34.819 144.492 34.2966L144.445 38.5449H141.13V27.0138H144.025C144.183 28.0779 144.207 28.2437 144.211 28.4099C144.212 28.4406 144.212 28.4713 144.212 28.5077H144.305C144.311 28.4885 144.318 28.4694 144.324 28.4501C144.329 28.4352 144.335 28.4202 144.34 28.405C144.431 28.2006 144.585 28.0445 144.741 27.8868C144.755 27.8719 144.77 27.8571 144.785 27.8421C144.796 27.8306 144.807 27.819 144.819 27.8074C144.85 27.7743 144.881 27.7411 144.913 27.7075C145.602 27.0357 146.596 26.8186 147.525 26.8158C147.556 26.8157 147.587 26.8154 147.618 26.8151ZM148.46 30.8417C148.363 30.379 148.184 30.0424 147.806 29.7623C146.976 29.2474 145.587 29.2381 144.862 29.9467C144.504 30.3487 144.397 30.8739 144.394 31.4028C144.414 31.8902 144.507 32.3123 144.865 32.6624C145.477 33.1731 146.205 33.1839 146.966 33.1292C147.457 33.0424 147.835 32.8729 148.156 32.485C148.482 32.0191 148.528 31.393 148.46 30.8417Z" fill="#7E7E7E"/>
<path fill-rule="evenodd" clip-rule="evenodd" d="M85.236 26.7656C85.3527 26.7656 85.4699 26.7647 85.5866 26.7633C86.9564 26.7581 88.286 27.1129 89.3569 27.9944C89.3905 28.0196 89.4241 28.0452 89.4587 28.0719C90.2304 28.6956 90.701 29.7296 90.8041 30.7021C90.8653 32.0891 90.6776 33.2711 89.7304 34.3435L89.7065 34.3715L89.6747 34.409L89.6552 34.4317C89.2136 34.9163 88.6067 35.2053 88.0026 35.4294C87.9396 35.4527 87.8765 35.4765 87.814 35.5013C86.1081 36.1642 83.7767 35.9658 82.1175 35.2627C81.4891 34.9719 80.8668 34.4943 80.5335 33.8766V33.7833H80.4401C79.8846 32.4322 79.6595 30.9234 80.2361 29.5359C80.4364 29.0942 80.6777 28.7306 81.0003 28.3678C81.0297 28.3347 81.0587 28.3015 81.089 28.267C81.4144 27.9206 81.8285 27.6302 82.2608 27.4341H82.3542V27.3408C83.3173 26.9906 84.2076 26.7628 85.236 26.7656ZM85.3478 29.418L85.4893 29.4171C86.0327 29.4264 86.5691 29.5539 86.9673 29.9446C87.3931 30.4656 87.4566 31.1748 87.3964 31.8223C87.3548 31.9927 87.2951 32.1365 87.2096 32.2892C87.1826 32.3382 87.1555 32.3872 87.1275 32.4381C86.7974 32.8508 86.4197 33.0384 85.9025 33.1295C85.1765 33.1766 84.4314 33.2009 83.8483 32.7093C83.4828 32.376 83.353 31.9357 83.3236 31.4526C83.3086 30.8732 83.388 30.3923 83.8016 29.9549C84.2447 29.5268 84.7526 29.4208 85.3478 29.418Z" fill="#7E7E7E"/>
<path fill-rule="evenodd" clip-rule="evenodd" d="M97.4913 26.7633C97.3746 26.7647 97.2574 26.7656 97.1407 26.7656C96.5889 26.7642 96.0506 26.7833 95.5123 26.9187L95.362 26.964C95.2583 26.9948 95.1552 27.027 95.0525 27.0607C93.8354 27.4888 92.7873 28.1932 92.2056 29.379C91.7019 30.4855 91.6515 31.8986 92.0586 33.0405C92.475 34.1124 93.115 34.8421 94.1654 35.3239C95.7509 36.0083 98.0972 36.1315 99.7186 35.5013C99.7812 35.4765 99.8442 35.4527 99.9072 35.4294C100.537 35.1959 101.137 34.8925 101.6 34.3925L101.645 34.3398L101.682 34.2968C102.278 33.6161 102.67 32.7679 102.717 31.8571C102.76 30.5097 102.546 29.3053 101.599 28.2829C100.497 27.1988 99.0104 26.7577 97.4913 26.7633ZM97.2693 29.4261L97.306 29.4256C97.3295 29.4253 97.3531 29.4249 97.3772 29.4245C97.8982 29.424 98.3712 29.536 98.7871 29.8614C98.8954 29.9781 98.9823 30.1009 99.0672 30.2349C99.083 30.2558 99.0987 30.2766 99.1146 30.2974C99.126 30.3124 99.1374 30.3275 99.1489 30.3427C99.3898 30.8609 99.3767 31.6014 99.2026 32.1373C99.0598 32.4958 98.7689 32.7932 98.4206 32.9599C98.0374 33.1018 97.6933 33.1392 97.2876 33.141L97.1485 33.1438C96.6163 33.1466 96.0803 33.0229 95.6737 32.6625C95.4081 32.3805 95.2596 31.9725 95.2391 31.5888L95.2321 31.466C95.2148 30.9328 95.2923 30.409 95.6592 30.0015C95.8861 29.79 96.1149 29.6392 96.4062 29.5346C96.424 29.527 96.4419 29.5195 96.4598 29.512L96.4621 29.511L96.475 29.5056C96.4905 29.499 96.5062 29.4924 96.522 29.4856C96.7494 29.4247 96.9687 29.4257 97.2021 29.4267L97.232 29.4268L97.2693 29.4261Z" fill="#7E7E7E"/>
<path fill-rule="evenodd" clip-rule="evenodd" d="M158.308 26.7656C158.435 26.7656 158.561 26.7647 158.688 26.7633C160.018 26.7586 161.37 27.034 162.418 27.901C162.451 27.9257 162.484 27.9509 162.517 27.9771C163.313 28.6185 163.703 29.6755 163.866 30.6554V32.1493H156.209C156.421 32.7296 156.567 32.956 157.096 33.223C157.556 33.4154 158.02 33.4191 158.512 33.4215L158.691 33.4243C159.19 33.4261 159.64 33.3603 160.038 33.0363L160.049 33.0162L160.059 32.9982L160.068 32.982C160.075 32.9682 160.083 32.9542 160.091 32.9401C160.13 32.8994 160.151 32.877 160.177 32.8626C160.209 32.845 160.247 32.8393 160.333 32.8267C160.371 32.8264 160.408 32.8265 160.446 32.8268C160.473 32.8271 160.5 32.8275 160.528 32.8281H160.636C160.753 32.8281 160.87 32.8295 160.988 32.8314L161.055 32.8314L161.162 32.8317L161.232 32.8318C161.446 32.8328 161.661 32.8346 161.876 32.8365C162.093 32.8384 162.311 32.8393 162.529 32.8402L162.531 32.8402C162.961 32.8421 163.39 32.8454 163.819 32.8496C163.798 32.9046 163.776 32.9597 163.754 33.0148L163.686 33.1876C163.682 33.1972 163.678 33.2069 163.675 33.2166L163.648 33.2842C163.516 33.6171 163.336 33.8729 163.119 34.1567L163.118 34.1571C163.096 34.1878 163.074 34.2185 163.051 34.2506C162.267 35.2641 160.829 35.6236 159.628 35.7776C159.594 35.7818 159.56 35.786 159.524 35.7907L159.439 35.801L159.413 35.8043L159.372 35.8094C157.634 35.9798 155.622 35.8561 154.196 34.7426C153.42 34.0685 153.044 33.1465 152.895 32.1493C152.822 30.8389 152.999 29.5046 153.902 28.4873C153.943 28.4441 153.985 28.4009 154.027 28.358C154.054 28.3301 154.081 28.3022 154.109 28.2745L154.113 28.2698L154.114 28.2686L154.135 28.244C154.151 28.2261 154.167 28.208 154.183 28.1895C154.723 27.5943 155.545 27.2334 156.303 27.014C156.332 27.0049 156.346 27.0004 156.36 26.9959C156.375 26.9914 156.39 26.987 156.419 26.978C157.044 26.7941 157.662 26.7642 158.308 26.7656ZM158.48 29.1438C158.528 29.1433 158.576 29.1424 158.626 29.1419C159.123 29.1447 159.697 29.2227 160.08 29.5681C160.299 29.8025 160.505 30.0905 160.505 30.422H156.256C156.348 29.9654 156.626 29.6946 157.003 29.4416C157.445 29.1513 157.962 29.1475 158.474 29.1438L158.48 29.1438Z" fill="#7E7E7E"/>
<path fill-rule="evenodd" clip-rule="evenodd" d="M134.819 26.7687H134.7L134.686 26.7687C134.271 26.7691 133.857 26.7696 133.443 26.8135L133.409 26.8178L133.376 26.8219L133.334 26.827C132.258 26.9549 131.247 27.3144 130.393 27.9942C129.759 28.5856 129.489 29.2929 129.412 30.1417H132.82L132.822 30.1381C132.933 29.8034 133.012 29.5676 133.307 29.3662C133.993 28.9951 135.041 28.9904 135.785 29.193C135.82 29.2052 135.854 29.2168 135.887 29.2285C135.905 29.2345 135.923 29.2403 135.94 29.246C136.097 29.2975 136.244 29.346 136.336 29.4909C136.381 29.6795 136.395 29.8662 136.322 30.0483C136.176 30.1627 136.058 30.2308 135.878 30.2798L135.808 30.2913L135.694 30.3097C135.286 30.376 134.876 30.4194 134.464 30.461C134.221 30.485 133.966 30.5032 133.706 30.5217C132.668 30.5956 131.538 30.6761 130.667 31.165C130.653 31.1731 130.64 31.181 130.626 31.1888C130.61 31.1977 130.595 31.2065 130.58 31.2154C130.277 31.3671 129.993 31.5212 129.746 31.7551C129.305 32.2588 129.131 32.8368 129.121 33.503C129.142 34.1061 129.334 34.6514 129.777 35.0758C129.828 35.1125 129.844 35.1246 129.872 35.1447L129.926 35.1836C130.149 35.3559 130.375 35.4852 130.638 35.5893C132.218 36.1154 133.881 35.8498 135.341 35.1369V35.0436H135.435C135.818 34.7756 136.106 34.4619 136.379 34.0861C136.4 34.0565 136.421 34.0276 136.441 33.999L136.462 33.9698C136.498 34.1213 136.516 34.197 136.533 34.2729C136.542 34.3115 136.551 34.3502 136.562 34.399C136.573 34.4459 136.585 34.5022 136.602 34.5767C136.696 35.072 136.696 35.072 136.789 35.5571H139.683V35.5516C139.684 34.8845 139.685 34.2178 139.685 33.5506C139.685 33.1757 139.686 32.8004 139.686 32.425C139.687 32.1253 139.687 31.8251 139.687 31.5254C139.687 31.4573 139.687 31.3892 139.688 31.3211L139.688 31.2872V31.2868C139.688 31.2077 139.688 31.1286 139.688 31.0497C139.688 30.8979 139.688 30.7467 139.688 30.5954V30.4269C139.692 29.4881 139.516 28.6202 138.846 27.9241C137.767 26.9204 136.227 26.7705 134.819 26.7687ZM136.032 32.7574C136.313 32.4068 136.444 32.0851 136.415 31.6356C136.156 31.6356 135.803 31.7569 135.448 31.8789C135.152 31.9806 134.855 32.0829 134.608 32.116C134.538 32.1253 134.467 32.1342 134.396 32.143C133.86 32.2099 133.314 32.2779 132.864 32.5982C132.701 32.749 132.684 32.9012 132.67 33.1169L132.67 33.1173C132.676 33.1746 132.679 33.2111 132.692 33.2443C132.713 33.3023 132.761 33.3504 132.893 33.4824C133.198 33.7233 133.198 33.7233 134.035 33.7009C134.773 33.6561 135.532 33.3045 136.032 32.7574Z" fill="#7E7E7E"/>
<path d="M119.375 24.9596H129.459V27.9475H126.098V35.5571H122.643V27.9475H119.375V24.9596Z" fill="#7E7E7E"/>
</svg>

<svg xmlns="http://www.w3.org/2000/svg" width="180" height="60" fill="none" viewBox="0 0 180 60"><path fill="#7e7e7e" d="M50.9 41.693H18.786a2.645 2.645 0 0 1-2.652-2.635V20.942a2.645 2.645 0 0 1 2.652-2.635H50.9a2.645 2.645 0 0 1 2.652 2.635v18.116a2.645 2.645 0 0 1-2.652 2.635m-7.246-16.099c-2.481 0-4.495 2-4.495 4.466s2.014 4.466 4.495 4.466 4.495-2 4.495-4.466c0-2.465-2.014-4.466-4.495-4.466m-17.187 0c-2.482 0-4.495 2-4.495 4.466s2.013 4.466 4.495 4.466c2.481 0 4.495-2 4.495-4.466 0-2.465-2.014-4.466-4.495-4.466"/><path fill="#7e7e7e" fill-rule="evenodd" d="M114.427 24.446h-3.268l-.047 3.782a5 5 0 0 0-.269-.362l-.006-.006-.008-.01-.008-.008-.053-.055c-.736-.653-1.515-.974-2.51-.98l-.178.002c-.426.004-.84.008-1.256.113l-.082.025h-.001l-.064.02a7 7 0 0 0-.491.164c-.693.299-1.446.794-1.762 1.509l-.035.101h-.093c-.447 1.016-.594 1.941-.566 3.044.049 1.08.455 2.107 1.241 2.852l.017.017.019.017.001.002.038.035a1.5 1.5 0 0 0 .411.304l.033.01.067.022v.093c1.232.557 2.609.87 3.942.422.664-.268 1.37-.657 1.67-1.346l.036-.103h.094l.001.141c.006.182.035.364.185 1.305l.001.001h2.941zm-3.697 5.493c.38.419.499.928.484 1.485-.029.4-.112.715-.335 1.052l-.085.129c-.399.41-.975.527-1.528.54-.646.008-1.211-.066-1.702-.529-.33-.33-.417-.797-.429-1.246.009-.589.143-1.13.569-1.555.821-.645 2.261-.576 3.026.124" clip-rule="evenodd"/><path fill="#7e7e7e" d="M72.942 24.715h.101c.51.003 1.013.013 1.515.105l.119.021c1.104.206 2.099.587 2.915 1.38l.03.026.059.051c.582.531.982 1.48 1.078 2.256v.374h-3.735l-.047-.158v-.003l-.01-.032-.04-.132-.025-.085-.018-.057h-.093l-.061-.105c-.205-.334-.585-.482-.948-.584-.783-.164-1.755-.142-2.448.298l-.091.064-.094.063-.003.002c-.437.33-.626.867-.71 1.391a5.9 5.9 0 0 0 .2 2.466h.093l.047.12c.235.403.631.612 1.067.747.316.082.629.079.952.076h.208c.728-.004 1.384-.068 1.928-.607.178-.196.274-.367.374-.616l-2.848-.047-.003-.954-.001-.302v-.297l-.001-.062q0-.15.005-.3c.063-.062.14-.058.224-.054l.066.002h5.91c.06.004.086.005.106.016a.2.2 0 0 1 .043.037q.007.112.006.223v.71l-.001.231v.792l-.001.35v.255l-.001.755v.387l-.003 2.04h-2.941v-.002c-.074-.59-.097-.774-.112-.959l-.01-.134-.006-.071-.008-.126-.015-.21-.01-.15-.008-.123-.005-.072-.006-.087-.031-.444-.023-.33-.026.131-.003.012-.022.106-.012.058-.023.112-.001.006-.012.054c-.19.807-.626 1.477-1.319 1.94-1.192.711-2.771.735-4.094.404q-1.718-.47-2.61-1.983l-.06-.1c-.828-1.426-.779-3.559-.38-5.114.312-1.119 1.031-2.156 2.026-2.77h.094v-.093c.57-.294 1.112-.529 1.736-.683l.023-.005.026-.007.033-.008.035-.009c.63-.148 1.256-.192 1.9-.186"/><path fill="#7e7e7e" fill-rule="evenodd" d="M147.618 26.815h.019l.088-.001.087-.002c.405-.003.772.045 1.162.155l.111.03c1.009.285 1.781.972 2.288 1.875.231.462.355.95.448 1.456l.025.13c.184 1.241-.011 2.554-.76 3.577q-.12.156-.245.308l-.102.14c-.162.192-.373.339-.58.483h-.001l-.068.048-.043.03-.1.07c-.967.643-2.262.74-3.383.569a3.2 3.2 0 0 1-.672-.22l-.138-.059c-.575-.266-.897-.585-1.262-1.107l-.047 4.248h-3.315V27.014h2.895c.158 1.064.182 1.23.186 1.396l.001.098h.093l.019-.058.016-.045c.091-.204.245-.36.401-.518l.044-.045.034-.035.094-.1c.689-.671 1.683-.888 2.612-.891zm.842 4.027c-.097-.463-.276-.8-.654-1.08-.83-.515-2.219-.524-2.944.185-.358.402-.465.927-.468 1.456.02.487.113.91.471 1.26.612.51 1.34.52 2.101.466.491-.087.869-.256 1.19-.644.326-.466.372-1.092.304-1.643M85.236 26.766q.176 0 .35-.003c1.37-.005 2.7.35 3.77 1.231l.103.078c.771.624 1.242 1.658 1.345 2.63.061 1.387-.126 2.57-1.074 3.641l-.023.028-.032.038-.02.023c-.441.484-1.048.773-1.652.997l-.189.072c-1.706.663-4.037.465-5.696-.238-.629-.291-1.251-.769-1.584-1.386v-.094h-.094c-.555-1.35-.78-2.86-.204-4.247.2-.442.442-.805.764-1.168l.089-.101a3.8 3.8 0 0 1 1.172-.833h.093v-.093c.963-.35 1.854-.578 2.882-.575m.112 2.652h.141c.544.008 1.08.136 1.478.527.426.52.49 1.23.43 1.877a1.8 1.8 0 0 1-.187.467l-.082.15c-.33.412-.708.6-1.225.69-.727.048-1.472.072-2.055-.42-.365-.333-.495-.773-.524-1.256-.015-.58.064-1.06.478-1.498.443-.428.95-.534 1.546-.537M97.491 26.763q-.175.003-.35.003c-.552-.002-1.09.017-1.629.153l-.15.045q-.156.045-.31.097c-1.217.428-2.265 1.132-2.846 2.318-.504 1.106-.555 2.52-.147 3.662.416 1.071 1.056 1.801 2.106 2.283 1.586.684 3.932.808 5.554.177l.188-.072c.63-.233 1.23-.537 1.693-1.037l.045-.052.037-.043c.596-.68.988-1.53 1.035-2.44.043-1.347-.171-2.552-1.118-3.574-1.102-1.084-2.589-1.525-4.108-1.52m-.222 2.663h.037l.071-.002c.521 0 .994.112 1.41.437.108.117.195.24.28.374l.048.062.034.046c.24.518.228 1.258.054 1.794a1.58 1.58 0 0 1-.782.823c-.384.142-.728.18-1.133.181l-.14.003c-.532.003-1.068-.121-1.474-.481-.266-.282-.414-.69-.435-1.074l-.007-.123c-.017-.533.06-1.057.427-1.465.227-.211.456-.362.747-.466l.054-.023.002-.001.013-.005.047-.02c.227-.061.447-.06.68-.06h.067M158.308 26.766q.19 0 .38-.003c1.33-.004 2.682.271 3.73 1.138l.099.076c.796.642 1.186 1.698 1.349 2.678v1.494h-7.657c.212.58.358.807.887 1.074.46.192.924.196 1.416.199l.179.002c.499.002.949-.064 1.347-.388l.011-.02.01-.018.009-.016.023-.042c.039-.04.06-.063.086-.077a.5.5 0 0 1 .156-.036l.195.001h.108l.352.003h.244l.644.005.653.004h.002q.645.003 1.288.01l-.065.165-.068.173-.011.029-.027.067c-.132.333-.312.589-.529.873h-.001l-.067.094c-.784 1.013-2.222 1.373-3.423 1.527l-.104.013-.085.01-.026.003-.041.005c-1.738.17-3.75.047-5.176-1.066-.776-.675-1.152-1.596-1.301-2.594-.073-1.31.104-2.644 1.007-3.662l.125-.129.082-.084.004-.004.001-.001.021-.025.048-.055c.54-.595 1.362-.956 2.12-1.175l.057-.018.059-.018c.625-.184 1.243-.214 1.889-.212m.172 2.378.146-.002c.497.003 1.071.08 1.454.426.219.234.425.522.425.854h-4.249c.092-.457.37-.727.747-.98.442-.29.959-.294 1.471-.298zM134.819 26.769h-.133c-.415 0-.829 0-1.243.045l-.034.004-.033.004-.042.005c-1.076.128-2.087.487-2.941 1.167-.634.592-.904 1.299-.981 2.148h3.408l.002-.004c.111-.335.19-.57.485-.772.686-.37 1.734-.376 2.478-.173l.102.035.053.018c.157.052.304.1.396.245.045.189.059.375-.014.557a1.15 1.15 0 0 1-.444.232l-.07.011-.114.019c-.408.066-.818.11-1.23.151q-.366.035-.758.06c-1.038.075-2.168.155-3.039.644l-.041.024-.046.026c-.303.152-.587.306-.834.54-.441.504-.615 1.082-.625 1.748.021.603.213 1.148.656 1.573l.095.069.054.039c.223.172.449.301.712.405 1.58.526 3.243.26 4.703-.452v-.093h.094c.383-.268.671-.582.944-.958l.062-.087.021-.03.071.304.029.126.04.178.187.98h2.894v-.005l.002-2.001.001-1.126.001-.9.001-.204v-.894c.004-.939-.172-1.807-.842-2.503-1.079-1.004-2.619-1.154-4.027-1.155m1.213 5.988c.281-.35.412-.672.383-1.121-.259 0-.612.12-.967.243-.296.102-.593.204-.84.237q-.105.014-.212.027c-.536.067-1.082.135-1.532.455-.163.151-.18.303-.194.519.006.058.009.094.022.127.021.058.069.106.201.238.305.241.305.241 1.142.219a3.03 3.03 0 0 0 1.997-.944" clip-rule="evenodd"/><path fill="#7e7e7e" d="M119.375 24.96h10.084v2.988h-3.361v7.61h-3.455v-7.61h-3.268z"/></svg>
